X: 15
T:The Word of God
M:4/4
L:1/4
Q:90
C:Words and music by Catherine Faber, (c) 1994
A:Filk
W:From desert cliff and mountaintop we trace the wide design
W:Strike-slip fault and overthrust and syn- and anticline.
W:We gaze upon creation where erosion makes it known,
W:And count the countless eons in the banding of the stone.
W:Odd, long-vanished creatures and their tracks and shells are found,
W:Where truth has left its sketches on the slate below the ground.
W:The patient stone can speak if we but listen when it talks.
W:Humans wrote the bible; God wrote the rocks.
K:F
z6 D|D E F E/2D/2|C B, A, E|F>D E/2F/2 G|A3 Z|
A B A G/2F/2|G A G F|E F E/2 D/2-D A,3 A|
A>B A F|G A B B|A A G F|E3 A,|
D D E E| F<F G>G|F F E C|D4|
C C C>C|C D E E|F D D C|D3 D|
C C C C|C D E E|F>D F G|A3 A,|
A B A F|G>A B B|A<B A F|E4|
D<D E>E|FA G2|F2 E>C|D4||
% Output from ABC2Win  Version 2.0  on 6/12/96
